X: 5788
T: Caitlin Ni HEadha
R: slip jig
M: 9/8
K: Bdorian
B2 e Bcd cBA|B2 e Bcd c2 A|B2 e Bcd cBA|BAB EFA B3:|
EFA B2 c d2 B|E2 B AGF G2 F|EFA B2 c d2 B|1 E2 B AGF E3:|2 edB edB edB||

